X:1
T:Goss, 77.77 D
T:Goss, 77.77 D
T:John Goss (1800-1880)
T:Public Domain Courtesy of the Cyber Hymnal™
C:John Goss (1800-1880)
Z:Public Domain
Z:Courtesy of the Cyber Hymnal™
%%score ( 1 2 ) ( 3 4 )
L:1/8
Q:1/4=110
M:4/4
K:D
V:1 treble 
V:2 treble 
V:3 bass 
V:4 bass 
V:1
 [A,D]2 [DF]2 [DA]3 [Fd] | [Ec]2 [EB]2 [A,A]4 | [EA]2 [CG]2 [DF]3 [DG] | [DA]2 D2 [CE]4 | %4
 [DF]2 [FB]2 [E^G]3 E | [EA]2 [EB]2 [Ec]4 | [Dd]2 [FB]2 [D^G]2 [CA]2 | c3 z B [CA]4 | %8
 [=CE]2 [CF]2 [B,G]2 [EA]2 | [EB]2 [^DF]2 [EG]4 | [EG]2 [EA]2 [DB]2 [G=c]2 | [Gd]2 [FA]2 [GB]4 | %12
 [Ec]2 [CA]2 [Dd]3 D | [CE]2 [DF]2 [EG]4 | [DF]2 [DB]2 [DA]3 D | [DF]2 [CE]2 D4 |] %16
V:2
 x8 | x8 | x8 | x2 D2 x4 | x7 E | x8 | x8 | E2 E2 x5 | x8 | x8 | x8 | x8 | x7 D | x8 | x7 D | %15
 x4 D4 |] %16
V:3
 [D,F,]2 [D,A,]2 [F,A,]3 [D,A,] | A,2 [G,C]2 [F,D]4 | [C,A,]2 [A,,A,]2 [D,A,]3 [E,G,] | %3
 F,2 [B,,^G,]2 [A,,A,]4 | [D,A,]2 [B,,D]2 [E,B,]3 [E,^G,] | [C,A,]2 [E,^G,]2 A,4 | %6
 [F,A,]2 [D,D]2 [E,B,]2 [F,A,]2 | [E,A,]2 [E,^G,]2 [A,,A,]4 x | %8
 [A,,A,]2 [A,,A,]2 [E,G,]2 [=C,E,]2 | (F,G,) [B,,A,]2 [E,G,]4 | [=C,=C]2 [C,C]2 [G,B,]2 [E,G,]2 | %11
 (A,B,) [D,=C]2 [G,B,]4 | [G,A,]2 [G,A,]2 [F,A,]3 [F,A,] | [E,A,]2 [D,A,]2 [C,A,]4 | %14
 [D,A,]2 [G,,G,]2 [D,F,]3 [B,,F,] | [A,,A,]2 [A,,G,]2 [D,F,]4 |] %16
V:4
 x8 | A,2 x6 | x8 | F,2 x6 | x8 | x4 A,4 | x8 | x9 | x8 | B,,2 x6 | x8 | D,2 x6 | x8 | x8 | x8 | %15
 x8 |] %16

